icon-themes/breeze_svg/cmd/sc_alignverticalcenter.svg

<svg viewBox="0 0 16 16" xmlns="http://www.w3.org/2000/svg"><path d="m7 2v3h-2l3 3 3-3h-2v-3zm1 6h-6v1h6 6v-1zm0 1-3 3h2v3h2v-3h2z" fill="#4d4d4d"/></svg>

<svg xmlns="http://www.w3.org/2000/svg" viewBox="0 0 16 16">
 <path 
     style="fill:#4d4d4d" 
     d="M 7 2 L 7 5 L 5 5 L 8 8 L 11 5 L 9 5 L 9 2 L 7 2 z M 8 8 L 2 8 L 2 9 L 8 9 L 14 9 L 14 8 L 8 8 z M 8 9 L 5 12 L 7 12 L 7 15 L 9 15 L 9 12 L 11 12 L 8 9 z "
	 />
</svg>
